X:99
T:Joey Bona
R:single jig
C:Paul S. Cranford
O:Cape Breton Island
S:http://www.cranfordpub.com
D:currently unrecorded
B:currently unpublished in book form
Z:psc, (re-formatted,updated 9/17/04)
N:
H:                                                        copyrights Cranford Publications, SOCAN
L:1/8
Q:333
M:12/8
K:G
G2 D G2 A B3 B2 A|GFG ABc d2 B GBd|
e2c ABc d2 B G2 B|A2 B c2 A GFE DEF|
G2 D G2 A B3 B2 A|GFG ABc d2 B GBd|
e2c ABc d2 B G2 B|1ABc DEF G3 DEF:|2ABc DEF G3||
||GBd|e2 c efg a2 fd2 B|cAc BAG A2 F DFA|
e2 c efg a2 f d2 B|cAc  BdG cAF GBd|
e2 c efg a2 fd2 B|c2 A BAG FAF DEF|
GBG DEF GAB d2 B|e2 c d2 B cAF DEF|]
